X:1
T:Coming Home to Thee
T:Charles Hutchinson Gabriel
T:Coming Home to Thee
T:Public Domain
T:Public Domain
C:Charles Hutchinson Gabriel
Z:Public Domain
%%score 1 ( 2 3 )
L:1/8
M:4/4
K:Bb
V:1 treble 
V:2 bass 
V:3 bass 
V:1
 [B,D][CE] | [DF][DF][DF][DF] [EG][DF][Fd][FB] | [EG][EG][EG][EG] [EG]2 [=Ec][EB] | %3
w: 1.~I have|heard the wel- come sto- ry Of re-|demp- tion, full and free; I have|
w: 2.~I have|heard the wel- come sto- ry And it|makes my heart re- joice; I have|
w: 3.~I am|com- ing, glad- ly com- ing, For I|can no long- er stay From Thy|
 [FA][FA][FA][FA] [FA][Fe][EG][EA] | [DB][DB] [FB]>[Fc] [Fd]2 |:"^Refrain" [Fc][FB] | %6
w: wan- dered, O my Fa- ther, But Thy|child I long to be.||
w: heard the gen- tle plead- ing Of the|Spir- it’s warn- ing voice.||
w: lov- ing arms of mer- cy, And Thy|pre- cious fold, a- way.||
 [GB]<[GB] [GB]>[EG] [GB]2 [FA][EG] | [DF]2 [B,D]2 [DF]2 [DF][FB] | %8
w: ||
w: ||
w: ||
 [FA][FA][FA][FA] [FA][Ge][Fd][Ec] | [DB]<[DB] [DB]>[Ec] [Fd]2 :| [DB]<[DB] [DB]>[EB] [DB]2 |] %11
w: |||
w: |||
w: |||
V:2
 [B,,F,][B,,F,] | [B,,B,][B,,B,][B,,B,][B,,B,] [B,,B,][B,,B,][B,,B,][D,B,] | %2
w: ~ ~|~ ~ ~ ~ ~ ~ ~ ~|
 [E,B,][E,B,][E,B,][E,B,] [E,B,]2 [C,B,][C,C] | [F,C][F,C][F,C][F,C] [F,C][F,A,][F,A,][F,C] | %4
w: ~ ~ ~ ~ ~ ~ ~|~ ~ ~ ~ ~ ~ ~ ~|
 [B,,B,][B,,B,] [D,B,]>[F,A,] B,2 |: [D,B,][D,B,] | [E,E]<[E,E] [E,E]>[E,B,] [E,E]2 [E,B,][E,B,] | %7
w: ~ ~ ~ ~ ~|am com-|ing home to Thee, Com- ing home|
 [B,,B,]2 [B,,F,]2 [B,,B,]2 [B,,B,][D,B,] | [F,C][F,C][F,C][F,C] [F,C][F,A,][F,A,][F,A,] | %9
w: to Thee; I have heard|the in- vi- ta- tion, And I’m com-|
 B,<B, B,>B, B,2 :| [B,,B,]<[B,,F,] [B,,G,]>[B,,_G,] [B,,F,]2 |] %11
w: ing home to Thee, com-||
V:3
 x2 | x8 | x8 | x8 | x4 B,2 |: x2 | x8 | x8 | x8 | B,<B, B,>B, B,2 :| x6 |] %11
w: ||||I|||||ing home to Thee. *||

